X:119
M:6/8
L:1/4
K:G
B2 d B2 G | c2 A F2 D | G2 A (B3/2 A/) G | F E2 D3 | F2 A F2 D | G2 A B2 G | c2 B (A3/2 B/) G | G/F/ F2 E3 | ^G2 G A2 A | F2 F =G2 G | !sintro!E2 E F2 G | G2 F G3 !eintro!|]
